ix/music-square-search_twotone.svg

<svg viewBox="0 0 24 24" fill="none" xmlns="http://www.w3.org/2000/svg" height="1em" width="1em">
  <path d="M12.35 21H8.64999C3.89999 21 2 19.1 2 14.35V8.65002C2 3.90002 3.89999 2 8.64999 2H14.35C19.1 2 21 3.90002 21 8.65002V12.35" stroke="#292D32" stroke-width="1.5" stroke-linecap="round" stroke-linejoin="round"/>
  <g opacity="0.4">
    <path d="M6.71953 14.42C7.52034 14.42 8.16953 13.7708 8.16953 12.97C8.16953 12.1692 7.52034 11.52 6.71953 11.52C5.91872 11.52 5.26953 12.1692 5.26953 12.97C5.26953 13.7708 5.91872 14.42 6.71953 14.42Z" stroke="#292D32" stroke-width="1.5" stroke-linecap="round" stroke-linejoin="round"/>
    <path d="M13.4797 12V6.34001C13.4797 5.13001 12.7197 4.96997 11.9597 5.17997L9.0697 5.96995C8.5497 6.10995 8.17969 6.52999 8.17969 7.12999V8.14V8.81999V12.97" stroke="#292D32" stroke-width="1.5" stroke-linecap="round" stroke-linejoin="round"/>
    <path d="M12.0301 13.4498C12.8309 13.4498 13.4801 12.8006 13.4801 11.9998C13.4801 11.199 12.8309 10.5498 12.0301 10.5498C11.2293 10.5498 10.5801 11.199 10.5801 11.9998C10.5801 12.8006 11.2293 13.4498 12.0301 13.4498Z" stroke="#292D32" stroke-width="1.5" stroke-linecap="round" stroke-linejoin="round"/>
    <path d="M8.16992 8.8299L13.4799 7.37988" stroke="#292D32" stroke-width="1.5" stroke-linecap="round" stroke-linejoin="round"/>
  </g>
  <path d="M17.9402 21.2799C19.7075 21.2799 21.1402 19.8472 21.1402 18.0799C21.1402 16.3126 19.7075 14.8799 17.9402 14.8799C16.1729 14.8799 14.7402 16.3126 14.7402 18.0799C14.7402 19.8472 16.1729 21.2799 17.9402 21.2799Z" stroke="#292D32" stroke-width="1.5" stroke-linecap="round" stroke-linejoin="round"/>
  <path d="M21.7402 21.8799L20.7402 20.8799" stroke="#292D32" stroke-width="1.5" stroke-linecap="round" stroke-linejoin="round"/>
</svg>

<svg viewBox="0 0 24 24" fill="none" xmlns="http://www.w3.org/2000/svg" height="1em" width="1em">
  <path d="M12.35 21h-3.7C3.9 21 2 19.1 2 14.35v-5.7C2 3.9 3.9 2 8.65 2h5.7C19.1 2 21 3.9 21 8.65v3.7" stroke="#292D32" stroke-width="1.5" stroke-linecap="round" stroke-linejoin="round"/>
  <g opacity=".4" stroke="#292D32" stroke-width="1.5" stroke-linecap="round" stroke-linejoin="round">
    <path d="M6.72 14.42a1.45 1.45 0 1 0 0-2.9 1.45 1.45 0 0 0 0 2.9Z"/>
    <path d="M13.48 12V6.34c0-1.21-.76-1.37-1.52-1.16l-2.89.79c-.52.14-.89.56-.89 1.16v5.84"/>
    <path d="M12.03 13.45a1.45 1.45 0 1 0 0-2.9 1.45 1.45 0 0 0 0 2.9ZM8.17 8.83l5.31-1.45"/>
  </g>
  <path d="M17.94 21.28a3.2 3.2 0 1 0 0-6.4 3.2 3.2 0 0 0 0 6.4Zm3.8.6-1-1" stroke="#292D32" stroke-width="1.5" stroke-linecap="round" stroke-linejoin="round"/>
</svg>
